X: 42024
T: Walter Sammon's Grandmother
R: reel
M: 4/4
K: Dmajor
FAAB A2 dB|AFDE FE E2|FAAF A2 dB|AFEG FD D2|
FAAB A2 dB|AFDE FE E2|FAAF A2 dB|AFEG FD D2||
FA A2 BAdA|FAdA BE E2|FA A2 BAdB|AFEG FD D2|
FAdA BAdA|FAdA BE E2|dcBA BcdB|AFEG FD D2||

